X:27875208206599
T:7-3-11-8-8-5-12-7-11-10-9-9-11-10-2-6
%%setfont-1 Courier-Bold 8
T:$1K.516f::104:06:165:53:99:2:106:91:102:77:48:166:144:38:109:93::$0
T:$1Perm. No.: 27875208206599$0
M:3/8
L:1/8
Q:1/8=111
%%staves [1 2]
V:1 clef=treble
V:2 clef=bass
K:C
%1
[V:1]|: e/d/e/g/c'/g/ |\
[V:2]|: C,2z |\
%2
[V:1] Gce |\
[V:2] [E,2C,2]z |\
%3
[V:1] (dBG) |\
[V:2] B,,2z |\
%4
[V:1] [ec][e/c/][f/d/][ge] |\
[V:2] C,2z |\
%5
[V:1] ^fad |\
[V:2] [A,2C,2][A,C,] |\
%6
[V:1] A^F/G/B/g/ |\
[V:2] [G,2B,,2]z |\
%7
[V:1] Ad/c/B/A/ \
[V:2] C,D,D,, \
%8a
[V:1]|1 [g2d2B2G2]z :|2
[V:2]|1 G,,G,/=F,/E,/D,/ :|2
%8b
[V:1] [g2d2B2G2]z |:\
[V:2] G,,B,/G,/^F,/E,/ |:\
%9
[V:1] ^f/d/A f |\
[V:2] [A,2C,2][A,C,] |\
%10
[V:1] g/b/gd |\
[V:2] [D,2B,,2][G,B,,] |\
%11
[V:1] ec/e/g/c'/ |\
[V:2] [G,2C,2][E,C,] |\
%12
[V:1] d/b/g/d/B |\
[V:2] [B,2G,2]z |\
%13
[V:1] gce |\
[V:2] [E,/C,/]G,/[E,/C,/]G,/[E,/C,/]G,/ |\
%14
[V:1] cGe |\
[V:2] [E,/C,/]G,/[E,/C,/]G,/[E,/C,/]G,/ |\
%15
[V:1] d/f/d/f/B/d/ |\
[V:2] [A,2F,2][DG,] |\
%16
[V:1] c2z :|]
[V:2] C,G,,C,, :|]
